build/img/business_card/wa.svg

<svg width="43" height="43" viewBox="0 0 43 43" fill="none" xmlns="http://www.w3.org/2000/svg">
<path fill-rule="evenodd" clip-rule="evenodd" d="M16.9879 40.7864C8.06848 39.8583 3.74476 31.0592 1.88211 22.8412C0.37709 16.2011 3.13258 9.63531 9.04928 5.76144C15.7966 1.34374 24.6061 -0.975862 31.3306 3.56026C39.2453 8.89919 43.584 18.2984 40.2939 26.8379C36.8335 35.8194 27.1618 41.845 16.9879 40.7864Z" fill="#EF7F1A"/>
<path d="M27.4368 23.3586C27.1368 23.2586 25.8368 22.5586 25.5368 22.4586C25.2368 22.3586 25.1368 22.3586 24.9368 22.5586C24.6616 22.9449 24.3609 23.3124 24.0368 23.6586C23.8368 23.8586 23.7368 23.8586 23.4368 23.7586C22.6008 23.4772 21.8458 22.9967 21.2368 22.3586C20.6168 21.83 20.1071 21.1843 19.7368 20.4586C19.5368 20.1586 19.7368 20.0586 19.8368 19.8586C19.9939 19.7124 20.1287 19.5439 20.2368 19.3586C20.3368 19.1586 20.4368 19.0586 20.5368 18.8586C20.6368 18.6586 20.5368 18.5586 20.5368 18.3586C20.5368 18.1586 19.9368 16.8586 19.6368 16.3586C19.3368 15.8586 19.2368 15.8586 19.0368 15.8586H18.5368C18.2748 15.8703 18.0259 15.9769 17.8368 16.1586C17.508 16.4422 17.2474 16.7963 17.0743 17.1944C16.9012 17.5926 16.82 18.0247 16.8368 18.4586C16.9284 19.4809 17.31 20.4557 17.9368 21.2686C19.0727 23.0683 20.7098 24.4968 22.6468 25.3786C23.3468 25.6786 23.8468 25.7786 24.2468 25.9786C24.7959 26.1547 25.3807 26.1891 25.9468 26.0786C26.7099 25.8748 27.3804 25.4161 27.8468 24.7786C27.9732 24.3566 28.0405 23.9191 28.0468 23.4786C27.8425 23.4803 27.6395 23.4465 27.4468 23.3786L27.4368 23.3586ZM22.4368 30.1586C20.7755 30.1785 19.1426 29.7278 17.7268 28.8586L17.4268 28.6586L13.9168 29.5586L14.8268 26.1586L14.6268 25.8586C13.7127 24.3839 13.2278 22.6836 13.2268 20.9486C13.2248 19.1242 13.7641 17.3402 14.7765 15.8225C15.7888 14.3047 17.2287 13.1214 18.9138 12.4223C20.599 11.7232 22.4536 11.5398 24.243 11.8953C26.0325 12.2507 27.6763 13.129 28.9663 14.4191C30.2563 15.7091 31.1347 17.3529 31.4901 19.1423C31.8455 20.9317 31.6621 22.7864 30.963 24.4715C30.2639 26.1567 29.0806 27.5965 27.5629 28.6089C26.0451 29.6212 24.2612 30.1606 22.4368 30.1586ZM30.2468 13.2386C28.147 11.2146 25.353 10.0698 22.4368 10.0386C19.5194 10.0386 16.7215 11.1975 14.6586 13.2604C12.5957 15.3233 11.4368 18.1212 11.4368 21.0386C11.4363 22.9762 11.9542 24.8786 12.9368 26.5486L11.3168 32.2786L17.2268 30.7786C18.8542 31.6648 20.684 32.1128 22.5368 32.0786C23.9813 32.0786 25.4117 31.7941 26.7463 31.2412C28.0809 30.6884 29.2935 29.8782 30.3149 28.8568C31.3364 27.8353 32.1466 26.6227 32.6994 25.2881C33.2522 23.9535 33.5368 22.5231 33.5368 21.0786C33.4659 18.1492 32.2824 15.3567 30.2268 13.2686" fill="white"/>
</svg>

<svg width="43" height="43" fill="none" xmlns="http://www.w3.org/2000/svg"><path fill-rule="evenodd" clip-rule="evenodd" d="M16.988 40.786c-8.92-.928-13.243-9.727-15.106-17.945-1.505-6.64 1.25-13.206 7.167-17.08 6.748-4.417 15.557-6.737 22.282-2.2 7.914 5.338 12.253 14.737 8.963 23.277-3.46 8.981-13.132 15.007-23.306 13.948Z" fill="#EF7F1A"/><path d="M27.437 23.359c-.3-.1-1.6-.8-1.9-.9-.3-.1-.4-.1-.6.1a10.66 10.66 0 0 1-.9 1.1c-.2.2-.3.2-.6.1a5.44 5.44 0 0 1-2.2-1.4 6.2 6.2 0 0 1-1.5-1.9c-.2-.3 0-.4.1-.6.157-.147.292-.315.4-.5.1-.2.2-.3.3-.5.1-.2 0-.3 0-.5s-.6-1.5-.9-2c-.3-.5-.4-.5-.6-.5h-.5a1.08 1.08 0 0 0-.7.3 2.89 2.89 0 0 0-1 2.3 5.39 5.39 0 0 0 1.1 2.81 10.92 10.92 0 0 0 4.71 4.11c.7.3 1.2.4 1.6.6a3.42 3.42 0 0 0 1.7.1 3.46 3.46 0 0 0 1.9-1.3c.126-.422.194-.86.2-1.3a1.761 1.761 0 0 1-.6-.1l-.01-.02Zm-5 6.8a8.8 8.8 0 0 1-4.71-1.3l-.3-.2-3.51.9.91-3.4-.2-.3a9.33 9.33 0 0 1-1.4-4.91 9.22 9.22 0 1 1 9.21 9.21Zm7.81-16.92a11.43 11.43 0 0 0-7.81-3.2 11 11 0 0 0-11 11c0 1.937.517 3.84 1.5 5.51l-1.62 5.73 5.91-1.5a10.69 10.69 0 0 0 5.31 1.3 10.998 10.998 0 0 0 11-11 11.53 11.53 0 0 0-3.31-7.81" fill="#fff"/></svg>
